X: 1
T: a Starry Night for a Ramble
R: jig
Z: 2006 John Chambers <jc:trillian.mit.edu>
B: Pinewoods Alternates
M: 6/8
L: 1/8
K: D
g \
| "D"f2d A2F | "G"G3 B2B | "D"A2d c2d | "A7"e3 efg \
| "D"fed A2F | "G"G2A BcB | "A7"A2d c2e | "D"d3 "fine"d2 :|
f \
| "G"g2g gfe | "D"f2f fed | "A7"e2e efg | a3- a2f \
| "G"gag gfe | "D"fgf fed | "A7"efe efg | a3- "d.C."a2 |]
